austria/municipalities/41610.svg

<?xml version="1.0" encoding="UTF-8"?>
<!DOCTYPE svg PUBLIC "-//W3C//DTD SVG 1.1//EN" "http://www.w3.org/Graphics/SVG/1.1/DTD/svg11.dtd">
<svg xmlns="http://www.w3.org/2000/svg" version="1.1" width="166px" height="207px" style="shape-rendering:geometricPrecision; text-rendering:geometricPrecision; image-rendering:optimizeQuality; fill-rule:evenodd; clip-rule:evenodd" xmlns:xlink="http://www.w3.org/1999/xlink">
<g><path style="opacity:1" fill="#000000" d="M -0.5,-0.5 C 54.8333,-0.5 110.167,-0.5 165.5,-0.5C 165.5,44.1667 165.5,88.8333 165.5,133.5C 160.657,161.881 145.657,183.381 120.5,198C 112.336,201.554 104.002,204.388 95.5,206.5C 86.8333,206.5 78.1667,206.5 69.5,206.5C 29.593,196.928 6.25968,171.928 -0.5,131.5C -0.5,87.5 -0.5,43.5 -0.5,-0.5 Z"/></g>
<g><path style="opacity:1" fill="#006632" d="M 3.5,3.5 C 45.8346,3.33334 88.168,3.50001 130.5,4C 88.9814,50.0177 47.648,96.1843 6.5,142.5C 5.2096,140.343 4.37627,138.01 4,135.5C 3.50001,91.5013 3.33334,47.5013 3.5,3.5 Z"/></g>
<g><path style="opacity:1" fill="#fefffe" d="M 132.5,3.5 C 136.514,3.33449 140.514,3.50115 144.5,4C 141.204,8.08738 138.537,12.5874 136.5,17.5C 131.604,21.8628 126.438,25.8628 121,29.5C 118.192,35.5876 115.192,41.5876 112,47.5C 107.439,51.8662 102.272,55.3662 96.5,58C 89.7188,71.1146 79.8855,81.2813 67,88.5C 62.2502,94.3269 58.2502,100.66 55,107.5C 47.1847,114.405 39.1847,121.072 31,127.5C 27.8081,133.412 24.8081,139.412 22,145.5C 19.0422,150.126 15.3755,154.126 11,157.5C 8.84646,153.706 7.51313,149.706 7,145.5C 49.0836,98.2913 90.9169,50.9579 132.5,3.5 Z"/></g>
<g><path style="opacity:1" fill="#003266" d="M 147.5,3.5 C 152.167,3.5 156.833,3.5 161.5,3.5C 161.663,5.85684 161.497,8.19018 161,10.5C 155.328,16.4854 151.328,23.4854 149,31.5C 143.13,34.77 137.797,38.77 133,43.5C 130.527,49.7789 127.527,55.7789 124,61.5C 118.846,65.7433 113.512,69.7433 108,73.5C 104.08,79.6744 99.9132,85.6744 95.5,91.5C 89.3654,94.4033 83.6987,98.07 78.5,102.5C 74.4179,108.994 70.5845,115.661 67,122.5C 63.0572,126.221 58.5572,129.055 53.5,131C 51.0163,132.983 48.6829,135.15 46.5,137.5C 41.8641,144.904 37.6974,152.571 34,160.5C 30.5134,165.494 26.0134,169.161 20.5,171.5C 16.6669,168.553 14.0002,164.72 12.5,160C 15.9431,156.836 19.1097,153.336 22,149.5C 25.3333,142.833 28.6667,136.167 32,129.5C 40.3333,122.5 48.6667,115.5 57,108.5C 60.4843,102.368 64.151,96.368 68,90.5C 74.1009,86.5323 79.9342,82.1989 85.5,77.5C 89.7252,71.783 93.7252,65.9496 97.5,60C 104.147,57.0268 109.98,52.8602 115,47.5C 117.394,41.7126 120.06,36.0459 123,30.5C 128,26.8333 133,23.1667 138,19.5C 140.436,13.6123 143.602,8.27899 147.5,3.5 Z"/></g>
<g><path style="opacity:1" fill="#010101" d="M 40.5,11.5 C 64.5374,13.6943 75.0374,26.6943 72,50.5C 65.5159,66.4947 53.6826,73.328 36.5,71C 19.0326,65.5786 11.5326,53.7453 14,35.5C 18.2749,22.3886 27.1082,14.3886 40.5,11.5 Z"/></g>
<g><path style="opacity:1" fill="#fefffe" d="M 160.5,13.5 C 161.653,19.6529 161.82,25.9863 161,32.5C 117.046,81.2904 72.8798,129.957 28.5,178.5C 27.635,179.583 26.635,179.749 25.5,179C 24.1667,177.333 22.8333,175.667 21.5,174C 25.6149,171.552 29.4482,168.719 33,165.5C 38.2236,157.514 42.8903,149.181 47,140.5C 51.9757,134.423 58.1423,129.923 65.5,127C 71.0684,119.641 75.9018,111.807 80,103.5C 85.747,99.0405 91.9137,95.2072 98.5,92C 102.305,86.0294 106.305,80.196 110.5,74.5C 116.073,71.1018 121.24,67.1018 126,62.5C 129.623,56.2513 132.956,49.9179 136,43.5C 141.316,39.6832 146.482,35.6832 151.5,31.5C 153.459,24.9154 156.459,18.9154 160.5,13.5 Z"/></g>
<g><path style="opacity:1" fill="#fefffe" d="M 36.5,14.5 C 37.9778,14.238 39.3112,14.5713 40.5,15.5C 38.9969,17.4216 36.9969,18.5883 34.5,19C 30.6224,22.1105 30.6224,25.2771 34.5,28.5C 33.635,29.5827 32.635,29.7494 31.5,29C 27.1266,24.3116 23.4599,24.9782 20.5,31C 19.5,31.6667 18.5,31.6667 17.5,31C 21.8812,23.11 28.2146,17.61 36.5,14.5 Z"/></g>
<g><path style="opacity:1" fill="#fefffe" d="M 43.5,15.5 C 55.3129,15.0801 63.8129,20.4135 69,31.5C 73.1292,43.315 70.7958,53.6483 62,62.5C 59.9007,59.88 60.234,57.5466 63,55.5C 64.6147,50.9569 63.1147,48.1235 58.5,47C 61.2241,46.7305 63.8908,46.2305 66.5,45.5C 67.7874,42.2913 67.7874,39.1247 66.5,36C 67.3567,35.3109 68.0233,34.4776 68.5,33.5C 65.6723,31.1723 63.0057,28.6723 60.5,26C 58.1263,23.9348 55.9596,24.1015 54,26.5C 53.6466,25.3284 53.8132,24.1618 54.5,23C 54.0496,21.7147 53.3829,20.548 52.5,19.5C 49.203,18.6086 46.203,17.2753 43.5,15.5 Z"/></g>
<g><path style="opacity:1" fill="#cb0000" d="M 41.5,17.5 C 44.5343,19.247 47.8676,20.247 51.5,20.5C 51.78,23.2724 51.1134,25.7724 49.5,28C 51.5,31.3333 53.5,31.3333 55.5,28C 59.5461,27.6757 62.3794,29.509 64,33.5C 64.9967,36.8006 65.3301,40.134 65,43.5C 63.2041,44.767 61.3707,44.767 59.5,43.5C 56.7188,44.7872 56.0521,46.7872 57.5,49.5C 58.7362,50.2458 60.0695,50.5792 61.5,50.5C 59.9157,58.1242 55.2491,61.6242 47.5,61C 46.7511,59.2663 46.2511,57.433 46,55.5C 44.5421,54.2532 43.0421,54.2532 41.5,55.5C 40.6922,57.4233 40.1922,59.4233 40,61.5C 39.1074,62.0814 38.1074,62.4148 37,62.5C 30.9015,60.402 26.9015,56.402 25,50.5C 27.3344,49.33 29.1677,47.6633 30.5,45.5C 28.5512,41.5341 26.5512,41.5341 24.5,45.5C 23.1861,44.6872 22.0195,43.6872 21,42.5C 21.8001,39.8624 21.6335,37.1958 20.5,34.5C 22.4933,32.3345 24.3267,30.0011 26,27.5C 28.4479,29.9983 31.2813,31.4983 34.5,32C 37.1295,28.8006 36.7961,25.8006 33.5,23C 36.2014,21.168 38.868,19.3347 41.5,17.5 Z"/></g>
<g><path style="opacity:1" fill="#0a0200" d="M 42.5,22.5 C 43.1174,22.6107 43.6174,22.944 44,23.5C 43.6933,28.0977 45.1933,31.9311 48.5,35C 52.6701,35.3247 56.6701,35.4914 60.5,35.5C 51.068,40.6306 49.068,47.6306 54.5,56.5C 54.1667,56.8333 53.8333,57.1667 53.5,57.5C 46.755,49.5774 40.0883,49.5774 33.5,57.5C 33.1667,57.1667 32.8333,56.8333 32.5,56.5C 37.6943,46.9326 35.361,39.9326 25.5,35.5C 30.1668,35.9055 34.8335,35.4055 39.5,34C 42.014,30.5866 43.014,26.7532 42.5,22.5 Z"/></g>
<g><path style="opacity:1" fill="#fefffe" d="M 16.5,33.5 C 19.2979,35.3981 19.9645,37.8981 18.5,41C 18.7348,44.8982 20.7348,47.2316 24.5,48C 23.1955,48.804 22.5288,49.9707 22.5,51.5C 24.2713,54.4473 26.2713,57.2806 28.5,60C 26.1613,62.5497 26.828,63.0497 30.5,61.5C 37.6981,66.7757 42.0314,65.109 43.5,56.5C 45.0385,63.7366 49.0385,65.4033 55.5,61.5C 57.0016,62.0831 58.3349,62.9164 59.5,64C 52.702,69.1891 45.0354,70.8558 36.5,69C 19.8688,62.914 13.2021,51.0806 16.5,33.5 Z"/></g>
<g><path style="opacity:1" fill="#fefffe" d="M 40.5,35.5 C 45.8535,34.6806 49.1868,36.8473 50.5,42C 49.0341,47.9013 45.3675,49.9013 39.5,48C 35.3999,43.445 35.7332,39.2783 40.5,35.5 Z"/></g>
<g><path style="opacity:1" fill="#cb0000" d="M 159.5,36.5 C 160.833,52.9865 161.5,69.8198 161.5,87C 161.333,103.833 161.167,120.667 161,137.5C 152.72,172.78 130.887,194.28 95.5,202C 69.7667,205.696 47.4333,198.863 28.5,181.5C 72.5807,133.425 116.247,85.0921 159.5,36.5 Z"/></g>
<g><path style="opacity:1" fill="#cb0000" d="M 51.5,37.5 C 54.0009,37.5109 54.1676,38.1776 52,39.5C 51.5357,38.9056 51.369,38.2389 51.5,37.5 Z"/></g>
<g><path style="opacity:1" fill="#000000" d="M 112.5,111.5 C 129.958,111.473 141.125,119.806 146,136.5C 147.71,154.769 139.877,166.602 122.5,172C 100.975,173.582 88.6419,163.749 85.5,142.5C 87.0428,125.626 96.0428,115.293 112.5,111.5 Z"/></g>
<g><path style="opacity:1" fill="#fefffe" d="M 108.5,114.5 C 110.199,114.34 111.866,114.506 113.5,115C 105.333,126.5 97.1667,138 89,149.5C 86.1367,132.556 92.6367,120.889 108.5,114.5 Z"/></g>
<g><path style="opacity:1" fill="#fefffe" d="M 118.5,115.5 C 126.829,115.077 133.663,118.41 139,125.5C 144.169,132.962 145.502,140.962 143,149.5C 135.057,137.923 126.89,126.59 118.5,115.5 Z"/></g>
<g><path style="opacity:1" fill="#006632" d="M 115.5,115.5 C 117.193,116.475 118.693,117.808 120,119.5C 127.112,130.278 134.612,140.778 142.5,151C 125.167,151.667 107.833,151.667 90.5,151C 98.966,139.225 107.299,127.392 115.5,115.5 Z"/></g>
<g><path style="opacity:1" fill="#fefffe" d="M -0.5,131.5 C 6.25968,171.928 29.593,196.928 69.5,206.5C 46.1667,206.5 22.8333,206.5 -0.5,206.5C -0.5,181.5 -0.5,156.5 -0.5,131.5 Z"/></g>
<g><path style="opacity:1" fill="#fefffe" d="M 165.5,133.5 C 165.5,157.833 165.5,182.167 165.5,206.5C 142.167,206.5 118.833,206.5 95.5,206.5C 104.002,204.388 112.336,201.554 120.5,198C 145.657,183.381 160.657,161.881 165.5,133.5 Z"/></g>
<g><path style="opacity:1" fill="#fefffe" d="M 90.5,154.5 C 107.338,153.173 124.338,153.173 141.5,154.5C 132.779,169.69 120.113,174.19 103.5,168C 97.9256,164.594 93.5922,160.094 90.5,154.5 Z"/></g>
</svg>

<svg xmlns="http://www.w3.org/2000/svg" width="166" height="207" style="shape-rendering:geometricPrecision;text-rendering:geometricPrecision;image-rendering:optimizeQuality;fill-rule:evenodd;clip-rule:evenodd"><path style="opacity:1" d="M-.5-.5h166v134c-4.843 28.381-19.843 49.881-45 64.5a157.946 157.946 0 0 1-25 8.5h-26c-39.907-9.572-63.24-34.572-70-75V-.5z"/><path style="opacity:1" fill="#006632" d="M3.5 3.5c42.335-.167 84.668 0 127 .5a24257.45 24257.45 0 0 0-124 138.5 18.984 18.984 0 0 1-2.5-7c-.5-43.999-.667-87.999-.5-132z"/><path style="opacity:1" fill="#fefffe" d="M132.5 3.5a72.436 72.436 0 0 1 12 .5 54.865 54.865 0 0 0-8 13.5 141.613 141.613 0 0 1-15.5 12 320.127 320.127 0 0 1-9 18A55.676 55.676 0 0 1 96.5 58C89.719 71.115 79.885 81.281 67 88.5a93.398 93.398 0 0 0-12 19 539.704 539.704 0 0 1-24 20 319.991 319.991 0 0 0-9 18 47.065 47.065 0 0 1-11 12c-2.154-3.794-3.487-7.794-4-12a22167.24 22167.24 0 0 0 125.5-142z"/><path style="opacity:1" fill="#003266" d="M147.5 3.5h14a24.935 24.935 0 0 1-.5 7c-5.672 5.985-9.672 12.985-12 21a73.931 73.931 0 0 0-16 12 113.461 113.461 0 0 1-9 18 220.835 220.835 0 0 1-16 12 265.128 265.128 0 0 1-12.5 18 76.677 76.677 0 0 0-17 11 294.167 294.167 0 0 0-11.5 20 40.854 40.854 0 0 1-13.5 8.5 64.31 64.31 0 0 0-7 6.5 212.626 212.626 0 0 0-12.5 23c-3.487 4.994-7.987 8.661-13.5 11-3.833-2.947-6.5-6.78-8-11.5a77.801 77.801 0 0 0 9.5-10.5l10-20 25-21a330.554 330.554 0 0 1 11-18 175.011 175.011 0 0 0 17.5-13 298.47 298.47 0 0 0 12-17.5c6.647-2.973 12.48-7.14 17.5-12.5a197.254 197.254 0 0 1 8-17l15-11c2.436-5.888 5.602-11.221 9.5-16z"/><path style="opacity:1" fill="#010101" d="M40.5 11.5c24.037 2.194 34.537 15.194 31.5 39C65.516 66.495 53.683 73.328 36.5 71 19.033 65.579 11.533 53.745 14 35.5c4.275-13.111 13.108-21.111 26.5-24z"/><path style="opacity:1" fill="#fefffe" d="M160.5 13.5c1.153 6.153 1.32 12.486.5 19a26906.49 26906.49 0 0 1-132.5 146c-.865 1.083-1.865 1.249-3 .5l-4-5a71.579 71.579 0 0 0 11.5-8.5 208.918 208.918 0 0 0 14-25c4.976-6.077 11.142-10.577 18.5-13.5A145.65 145.65 0 0 0 80 103.5 105.26 105.26 0 0 1 98.5 92a314.77 314.77 0 0 1 12-17.5 88.64 88.64 0 0 0 15.5-12 260.042 260.042 0 0 0 10-19 271.366 271.366 0 0 0 15.5-12c1.959-6.585 4.959-12.585 9-18zM36.5 14.5c1.478-.262 2.811.071 4 1-1.503 1.922-3.503 3.088-6 3.5-3.878 3.11-3.878 6.277 0 9.5-.865 1.083-1.865 1.25-3 .5-4.373-4.688-8.04-4.022-11 2-1 .667-2 .667-3 0 4.381-7.89 10.715-13.39 19-16.5zM43.5 15.5c11.813-.42 20.313 4.913 25.5 16 4.13 11.815 1.796 22.148-7 31-2.1-2.62-1.766-4.953 1-7 1.615-4.543.115-7.377-4.5-8.5a46.65 46.65 0 0 0 8-1.5c1.287-3.209 1.287-6.375 0-9.5a7.253 7.253 0 0 0 2-2.5 85.078 85.078 0 0 1-8-7.5c-2.374-2.065-4.54-1.898-6.5.5-.353-1.172-.187-2.338.5-3.5a11.074 11.074 0 0 0-2-3.5c-3.297-.891-6.297-2.225-9-4z"/><path style="opacity:1" fill="#cb0000" d="M41.5 17.5c3.034 1.747 6.368 2.747 10 3 .28 2.772-.387 5.272-2 7.5 2 3.333 4 3.333 6 0 4.046-.324 6.88 1.509 8.5 5.5.997 3.3 1.33 6.634 1 10-1.796 1.267-3.63 1.267-5.5 0-2.781 1.287-3.448 3.287-2 6a6.845 6.845 0 0 0 4 1c-1.584 7.624-6.25 11.124-14 10.5a20.435 20.435 0 0 1-1.5-5.5c-1.458-1.247-2.958-1.247-4.5 0a20.216 20.216 0 0 0-1.5 6 6.288 6.288 0 0 1-3 1c-6.099-2.098-10.099-6.098-12-12 2.334-1.17 4.168-2.837 5.5-5-1.949-3.966-3.949-3.966-6 0a14.974 14.974 0 0 1-3.5-3c.8-2.638.634-5.304-.5-8a57.642 57.642 0 0 0 5.5-7c2.448 2.498 5.281 3.998 8.5 4.5 2.63-3.2 2.296-6.2-1-9a756.256 756.256 0 0 0 8-5.5z"/><path style="opacity:1" fill="#0a0200" d="M42.5 22.5c.617.11 1.117.444 1.5 1-.307 4.598 1.193 8.431 4.5 11.5 4.17.325 8.17.491 12 .5-9.432 5.13-11.432 12.13-6 21l-1 1c-6.745-7.923-13.412-7.923-20 0l-1-1c5.194-9.567 2.861-16.567-7-21 4.667.406 9.334-.094 14-1.5 2.514-3.413 3.514-7.247 3-11.5z"/><path style="opacity:1" fill="#fefffe" d="M16.5 33.5c2.798 1.898 3.465 4.398 2 7.5.235 3.898 2.235 6.232 6 7-1.305.804-1.971 1.97-2 3.5a71.53 71.53 0 0 0 6 8.5c-2.339 2.55-1.672 3.05 2 1.5 7.198 5.276 11.531 3.609 13-5 1.538 7.237 5.538 8.903 12 5a12.417 12.417 0 0 1 4 2.5c-6.798 5.19-14.465 6.856-23 5-16.631-6.086-23.298-17.92-20-35.5zM40.5 35.5c5.353-.82 8.687 1.347 10 6.5-1.466 5.901-5.133 7.901-11 6-4.1-4.555-3.767-8.722 1-12.5z"/><path style="opacity:1" fill="#cb0000" d="M159.5 36.5c1.333 16.486 2 33.32 2 50.5l-.5 50.5c-8.28 35.28-30.113 56.78-65.5 64.5-25.733 3.696-48.067-3.137-67-20.5a13247.853 13247.853 0 0 0 131-145zM51.5 37.5c2.5.01 2.668.678.5 2a2.428 2.428 0 0 1-.5-2z"/><path style="opacity:1" d="M112.5 111.5c17.458-.027 28.625 8.306 33.5 25 1.71 18.269-6.123 30.102-23.5 35.5-21.525 1.582-33.858-8.251-37-29.5 1.543-16.874 10.543-27.207 27-31z"/><path style="opacity:1" fill="#fefffe" d="M108.5 114.5a12.93 12.93 0 0 1 5 .5L89 149.5c-2.863-16.944 3.637-28.611 19.5-35zM118.5 115.5c8.329-.423 15.163 2.91 20.5 10 5.169 7.462 6.502 15.462 4 24a904.424 904.424 0 0 0-24.5-34z"/><path style="opacity:1" fill="#006632" d="M115.5 115.5c1.693.975 3.193 2.308 4.5 4a523.42 523.42 0 0 0 22.5 31.5 675.912 675.912 0 0 1-52 0 2212.54 2212.54 0 0 0 25-35.5z"/><path style="opacity:1" fill="#fefffe" d="M-.5 131.5c6.76 40.428 30.093 65.428 70 75h-70v-75zM165.5 133.5v73h-70a157.946 157.946 0 0 0 25-8.5c25.157-14.619 40.157-36.119 45-64.5zM90.5 154.5c16.838-1.327 33.838-1.327 51 0-8.721 15.19-21.387 19.69-38 13.5-5.574-3.406-9.908-7.906-13-13.5z"/></svg>
